UI/Social/SVG/telephone_solid_24px.svg

<svg width="24" height="24" viewBox="0 0 24 24" fill="none" xmlns="http://www.w3.org/2000/svg">
<path fill-rule="evenodd" clip-rule="evenodd" d="M10 7.81001L9.12 10.21C9.12671 10.365 9.17887 10.5145 9.27 10.64L13.38 14.81C13.4861 14.885 13.6105 14.9299 13.74 14.94H13.82L17.7 13.7L21.37 16.75C21.5563 16.903 21.7086 17.0932 21.8171 17.3084C21.9256 17.5237 21.9879 17.7593 22 18C22.0175 18.2644 21.9823 18.5295 21.8965 18.7802C21.8107 19.0308 21.6759 19.2619 21.5 19.46L19.68 21.46C19.5479 21.6132 19.3927 21.7448 19.22 21.85L19 22H18.71C18.2782 21.9882 17.8475 21.9515 17.42 21.89C13.5896 21.1523 10.0899 19.224 7.42 16.38C4.62409 13.7032 2.76552 10.1965 2.12 6.38001C2 6.00001 2 5.68001 2 5.37001V5.12001L2.11 4.90001C2.24094 4.62989 2.42852 4.39114 2.66 4.20001L4.78 2.47001C4.9829 2.29696 5.21836 2.16623 5.47252 2.08551C5.72669 2.00479 5.99443 1.97572 6.26 2.00001C6.49891 2.02147 6.73103 2.09099 6.9424 2.20441C7.15376 2.31783 7.34003 2.4728 7.49 2.66001L10.49 6.40001L10 7.81001Z" fill="#0F1621"/>
</svg>

<svg xmlns="http://www.w3.org/2000/svg" width="24" height="24" viewBox="0 0 24 24"><polygon points="24 0 0 0 0 24 24 24 24 0 24 0" style="fill:none"/><path d="M10,7.81l-.88,2.4a.79.79,0,0,0,.15.43l4.11,4.17a.72.72,0,0,0,.36.13h.08L17.7,13.7l3.67,3.05A1.73,1.73,0,0,1,22,18a2,2,0,0,1-.5,1.46l-1.82,2a1.94,1.94,0,0,1-.46.39L19,22h-.29a11.22,11.22,0,0,1-1.29-.11,18.52,18.52,0,0,1-10-5.51,18,18,0,0,1-5.3-10C2,6,2,5.68,2,5.37V5.12l.11-.22a2.09,2.09,0,0,1,.55-.7L4.78,2.47A2,2,0,0,1,6.26,2a1.78,1.78,0,0,1,1.23.66l3,3.74L10,7.81" style="fill-rule:evenodd"/></svg>
